X: 40871
T: Tri A Chwech
R: three-two
M: 3/2
K: Dmajor
A/3B/3c/3|:d2A|F>GA|ee/=f/e/=f/e/|A/B/c/d/e/|
d2A|FGA|=fe/d/|1 =f/e/d2A/3B/3c/3:|2 =f/e/d2c/d/||
|:ee/=f/d/=f/|e2d/e/|=fe/d/c/B/A|A/G/F/G/A|
A/G/F/G/A|A/G/F/E/D|dcd-|1 dc/d/:|2 d>||

